X:1
T:NEVER TURN YOUR BACK ON MOTHER EARTH
C:Ron Mael
Z:All Rights Reserved
L:1/8
Q:1/4=120
M:4/4
K:C
V:1 treble nm="MusicXML Part"
%%MIDI program 0
V:1
"C" EGcG EGcG |"G" DGBG DGBG |"Am" EAcA EAcA | EAcA EAcA |:"E" d-e-ee eB- B2 |"E7" B2 z e d-c B2 | %6
w: ||||1.When _ _ she's on her _|best be hav _ iour|
w: ||||2.Towns _ _ are hurled _ from|"A" to "B" _ by|
"Am" B-czB c-AA-_A | A2 z c B2 A2 |"C/G" G3 e e-GG-F |"G7" F2 z d d-c B2 |"Am" A8- | A6 z2 :| %12
w: Don't _ be tempt _ ted _|by her fav ors|NEV ER TURN _ YOUR _|BACK ON MOTH _ ER|EARTH|_|
w: hands _ that looked _ so _|smooth to me _|NEV ER TURN _ YOUR _|BACK OM MOTH _ ER|EARTH|_|
"C" e2 z e g2 e2 |"G" g-a-ag a2 g2 |"Am" c2 z d e2 c2 |"G" g2 z f g2 f2 |"Am" A3 e e-AA-_A | %17
w: Grasp at straws that|don't _ _ want grasp ing|gaze at clouds that|come down crash ing:|NEV ER TURN _ YOUR _|
w: |||||
"G" G3 d d-c B2 |"Am" A4 z4 |"Fm" f2 ff"Cm" g2 gg |"Bb" d2 dd"Dm" fe d2 |"Fm" f2 ff"Cm" gg g2 | %22
w: BACK ON MOTH _ ER|EARTH|Three days and two nights a|way from my friends _ _|"A MEN" to an y thing|
w: |||||
"Bb" d2 dd"Dm" fedc |"C" G3 e e4- | e2 z2 z2 G2 |"E" _A2- A>e- e3 f | e8 |"C" E2 z F G2 E2 | %28
w: that brings a quick re trurn to|My _ Friends|_ to|My _ _ _ _|Friends.|(rock tar for mon|
w: ||||||
"G9" A3 B A2 G2 |"Am" C2 z D E2 C2 |"G" G3 F G2 F2 |"Am" A3 e e-AA-_A |"G" G3 d d-c B2 | %33
w: keys) _ _ _|_||NEV ER TURN _ YOUR _|BACK ON MOTH _ ER|
w: |||||
"Am" A4 z4 | z2 z2 z2 d2 |"E" e2 z e e2 B2 | B2 z e d-c B2 |"Am" B-c-cc c-A A2 | A2 z c B2 A2 |: %39
w: EARTH|Well,|I'll ad mit I|was un faith _ ful|but _ _ from now _ I'll|be mo faith ful|
w: ||||||
"C""^repeat 3x" G2 z e e-GG-F |"G7" F2 z d d-c B2 :|"Am" A8 |] %42
w: NEV ER TURN _ YOUR _|BACK ON MOTH ER _|EARTH|
w: |||

